X:12
T:No.32 Yellow Tinker
C:reel
M:4/4
L:1/8
K:G
EAAG EGDG|EA (3AAA fAeA|
EAAG EDEF|GB (3BBB cGBG|
EAAG EGDG|EA(3AAA fAeA|
EAAG EDEF|GABd dBGB||
A2eA fAeA|fAeA BAGB|
A2eA fAeA|d2BG DGBG|
A2eA fAeA|fAeA BAGB|
A2ef gfge|d2BG DGBG||
